X: 4854
T:Hag at the Churn, The
M:6/8
L:1/8
Q:100
C:Trad
S:Bothy Band
R:Jig
N:Contributed by Phil Sexton
D:Out of the Wind Into the Sun
K:G
A2G ADD|A2G Adc|A2G ADD|EFG EFG:|!
AdB c3|Add efg|AdB c3|EDE GED|!
AdB c3|Add efg|fge dcA|GEF GED|!
